packages/foundations/assets/icons/functional/images/file/download_32.svg

<svg width="32" height="32" viewBox="0 0 32 32" fill="none" xmlns="http://www.w3.org/2000/svg">
<g clip-path="url(#clip0_185_915)">
<path fill-rule="evenodd" clip-rule="evenodd" d="M4 20.9998C4 20.4374 4.4376 20 5.0001 20C5.5626 20 6.0001 20.4374 6.0001 20.9999V26.9999C6.0001 27.5624 6.4376 27.9999 7.0001 27.9999H24.9999C25.5624 27.9999 25.9999 27.5624 25.9999 26.9999L26.0001 20.9998C25.9999 20.4374 26.4374 20 27 19.9998C27.5623 20 28 20.4374 28 20.9998V26.9999C28 28.6561 26.6561 29.9998 24.9999 29.9998H7.0001C5.3439 29.9998 4 28.6561 4 26.9999V20.9998ZM9.2813 15.6875C9.0938 15.5 9.0001 15.25 9.0001 15C9.0001 14.5 9.3438 14 10.0001 14C10.2501 14 10.5001 14.0938 10.7188 14.2813L15 18.5937V3.00021C15 2.43771 15.4375 2.00021 16 2.00021C16.5625 2.00021 17 2.43771 17 3.00021V18.5937L21.2812 14.2813C21.4999 14.0938 21.7499 14 21.9999 14C22.5937 14 22.9999 14.4375 22.9999 15C22.9999 15.25 22.9061 15.5 22.7187 15.7188L16.7187 21.7187C16.5 21.9062 16.25 21.9999 16 21.9999C15.75 21.9999 15.5 21.9062 15.3125 21.7187L9.2813 15.6875Z" fill="#1A1C1F"/>
</g>
<defs>
<clipPath id="clip0_185_915">
<rect width="32" height="32" fill="white"/>
</clipPath>
</defs>
</svg>

<svg xmlns="http://www.w3.org/2000/svg" width="32" height="32" fill="none"><g clip-path="url(#a)"><path fill="#1A1C1F" fill-rule="evenodd" d="M4 21c0-.563.438-1 1-1s1 .437 1 1v6c0 .562.438 1 1 1h18c.562 0 1-.438 1-1v-6c0-.563.437-1 1-1s1 .437 1 1v6a3 3 0 0 1-3 3H7a3 3 0 0 1-3-3zm5.281-5.312a.97.97 0 0 1-.28-.688c0-.5.343-1 1-1 .25 0 .5.094.718.281L15 18.594V3c0-.562.438-1 1-1s1 .438 1 1v15.594l4.281-4.313A1.1 1.1 0 0 1 22 14c.594 0 1 .438 1 1 0 .25-.094.5-.281.719l-6 6a1.1 1.1 0 0 1-.719.28.97.97 0 0 1-.687-.28z" clip-rule="evenodd"/></g><defs><clipPath id="a"><path fill="#fff" d="M0 0h32v32H0z"/></clipPath></defs></svg>
